assets/svgs/mercedes.svg

<svg xmlns="http://www.w3.org/2000/svg" width="80" height="80" viewBox="0 0 80 80"><path d="M57.636 6.309c12.098 6.363 20.364 19.049 20.364 33.672 0 14.623-8.266 27.349-20.364 33.673v-4.348c4.628-2.769 8.541-6.642 11.39-11.226l-11.39-4.623v-7.035l12.495 9.763c2.61-4.822 4.073-10.316 4.073-16.206 0-12.41-6.644-23.317-16.568-29.325v-4.345zm-17.596-4.308c6.327 0 12.297 1.542 17.596 4.308v4.348c-4.864-2.926-10.558-4.664-16.567-4.862l4.349 31.104 12.219 9.525v7.035l-17.677-7.154-17.557 7.193v-6.996l12.298-9.604 4.31-31.104c-6.09.198-11.744 1.937-16.608 4.861v-4.346c5.26-2.766 11.27-4.308 17.637-4.308zm17.596 71.653c-5.299 2.766-11.27 4.346-17.596 4.346-6.366 0-12.376-1.58-17.636-4.307v-4.387c5.141 3.12 11.19 4.899 17.636 4.899 6.405 0 12.417-1.779 17.596-4.899v4.348zm-35.232.039c-12.14-6.363-20.404-19.089-20.404-33.712 0-14.623 8.264-27.309 20.404-33.672v4.348c-9.965 6.007-16.608 16.875-16.608 29.324 0 5.888 1.503 11.462 4.113 16.283l12.495-9.762v6.996l-11.349 4.662c2.847 4.547 6.722 8.379 11.349 11.146v4.387z"/></svg>

<?xml version="1.0" encoding="utf-8"?>
<!-- Generator: Adobe Illustrator 16.0.0, SVG Export Plug-In . SVG Version: 6.00 Build 0)  -->
<!DOCTYPE svg PUBLIC "-//W3C//DTD SVG 1.1//EN" "http://www.w3.org/Graphics/SVG/1.1/DTD/svg11.dtd">
<svg version="1.1" id="svg3544" xmlns:svg="http://www.w3.org/2000/svg"
	 xmlns="http://www.w3.org/2000/svg" xmlns:xlink="http://www.w3.org/1999/xlink" x="0px" y="0px" width="80px" height="80px"
	 viewBox="0 0 80 80" enable-background="new 0 0 80 80" xml:space="preserve">
<g id="layer1">
	<path id="path3524" d="M57.636,6.309C69.734,12.672,78,25.358,78,39.981c0,14.623-8.266,27.349-20.364,33.673v-4.348
		c4.628-2.769,8.541-6.642,11.39-11.226l-11.39-4.623v-7.035l12.495,9.763c2.61-4.822,4.073-10.316,4.073-16.206
		c0-12.41-6.644-23.317-16.568-29.325V6.309L57.636,6.309z M40.04,2.001c6.327,0,12.297,1.542,17.596,4.308v4.348
		c-4.864-2.926-10.558-4.664-16.567-4.862l4.349,31.104l12.219,9.525v7.035L39.96,46.305l-17.557,7.193v-6.996l12.298-9.604
		l4.31-31.104c-6.09,0.198-11.744,1.937-16.608,4.861V6.309C27.663,3.543,33.673,2.001,40.04,2.001L40.04,2.001L40.04,2.001z
		 M57.636,73.654C52.337,76.42,46.366,78,40.04,78c-6.366,0-12.376-1.58-17.636-4.307v-4.387c5.141,3.12,11.19,4.899,17.636,4.899
		c6.405,0,12.417-1.779,17.596-4.899V73.654L57.636,73.654z M22.404,73.693C10.264,67.33,2,54.604,2,39.981
		c0-14.623,8.264-27.309,20.404-33.672v4.348C12.439,16.664,5.796,27.532,5.796,39.981c0,5.888,1.503,11.462,4.113,16.283
		l12.495-9.762v6.996L11.055,58.16c2.847,4.547,6.722,8.379,11.349,11.146V73.693L22.404,73.693z"/>
</g>
</svg>
